X: 43109
T: Windsong
R: waltz
M: 3/4
K: Fmajor
|:f>e d<f A2|G<F G>A c<A|f>e d<f A2|G<F G<A c2|
f>e d<f A2|G<F G>A c<A|G<F G>A c<A|B>d c<E F2:|
|:d2 d>c d<f|A2 A>G (3FAc|d2 d>c (3cdf|g>f a>g (3fdc|
d2 d>c d<f|A2 A>G (3FGA|G>F G<A c<A|B>d c<E F2:|

